packages/axiom-components/src/Pictogram/svgs/organisation.svg

<svg height="40" viewBox="0 0 30 40" width="30" xmlns="http://www.w3.org/2000/svg"><g fill-rule="evenodd"><path d="m26.9684 8.06666667c1.6744 0 3.0316 1.3572 3.0316 3.03160003v1.3017333 8.45c0 .598-.4853333 1.0833333-1.0833333 1.0833333-.5988667 0-1.0833334-.4853333-1.0833334-1.0833333v-8.45h-.8666666v9.5333333 13.2166667c0 .8372-.6794667 1.5166667-1.5166667 1.5166667-.8380667 0-1.5166667-.6794667-1.5166667-1.5166667v-13.2166667h-.8666666v13.2166667c0 .8372-.6794667 1.5166667-1.5166667 1.5166667-.8380667 0-1.5166667-.6794667-1.5166667-1.5166667v-13.2166667-9.5333333h-.8666666v8.45c0 .598-.4853334 1.0833333-1.0833334 1.0833333-.5988666 0-1.0833333-.4853333-1.0833333-1.0833333v-8.45-1.3017333c0-1.67440003 1.3572-3.03160003 3.0316-3.03160003h.0017333 6.9333334zm-3.4684867-.86666667c-1.4360666 0-2.6-1.16393333-2.6-2.6s1.1639334-2.6 2.6-2.6c1.4360667 0 2.6 1.16393333 2.6 2.6s-1.1639333 2.6-2.6 2.6z" fill-opacity=".75"/><path d="m9.9684 8.06666667c1.6744 0 3.0316 1.3572 3.0316 3.03160003v1.3017333 8.45c0 .598-.4853333 1.0833333-1.0833333 1.0833333-.5988667 0-1.0833334-.4853333-1.0833334-1.0833333v-8.45h-.86666663v9.5333333 13.2166667c0 .8372-.67946667 1.5166667-1.51666667 1.5166667-.83806667 0-1.51666667-.6794667-1.51666667-1.5166667v-13.2166667h-.86666666v13.2166667c0 .8372-.67946667 1.5166667-1.51666667 1.5166667-.83806667 0-1.51666667-.6794667-1.51666667-1.5166667v-13.2166667-9.5333333h-.86666666v8.45c0 .598-.48533334 1.0833333-1.08333334 1.0833333-.59886666 0-1.08333333-.4853333-1.08333333-1.0833333v-8.45-1.3017333c0-1.67440003 1.3572-3.03160003 3.0316-3.03160003h.00173333 6.93333334zm-3.46848667-.86666667c-1.43606666 0-2.6-1.16393333-2.6-2.6s1.16393334-2.6 2.6-2.6c1.43606667 0 2.6 1.16393333 2.6 2.6s-1.16393333 2.6-2.6 2.6z" fill-opacity=".75"/><path d="m21.7850162 10.9998 2.523 9.418c.179.667-.217 1.352-.884 1.531s-1.352-.217-1.531-.884l-2.521-9.41-.97.263 3.774 14.082h-3v12.25c0 .967-.784 1.75-1.75 1.75-.967 0-1.75-.783-1.75-1.75v-12.25h-1v12.25c0 .967-.784 1.75-1.75 1.75-.967 0-1.75-.783-1.75-1.75v-12.25h-2.99999998l3.77299998-14.082-.969-.263-2.52199998 9.41c-.179.667-.864 1.063-1.531.884s-1.063-.864-.884-1.531l2.524-9.418c.625-2.334 2.22599998-3.898 4.69899998-4l3.823.016c2.47.086 4.07 1.65 4.696 3.984zm-6.6095-4.9998c-1.657 0-3-1.343-3-3s1.343-3 3-3 3 1.343 3 3-1.343 3-3 3z"/></g></svg>

<?xml version="1.0" encoding="UTF-8"?>
<svg width="30px" height="40px" viewBox="0 0 30 40" version="1.1" xmlns="http://www.w3.org/2000/svg" xmlns:xlink="http://www.w3.org/1999/xlink">
    <!-- Generator: sketchtool 43.2 (39069) - http://www.bohemiancoding.com/sketch -->
    <title>organisation</title>
    <desc>Created with sketchtool.</desc>
    <defs></defs>
    <g id="Page-1" stroke="none" stroke-width="1" fill="none" fill-rule="evenodd">
        <g id="organisation" fill="#000000">
            <path d="M26.9684,8.06666667 C28.6428,8.06666667 30,9.42386667 30,11.0982667 L30,12.4 L30,20.85 C30,21.448 29.5146667,21.9333333 28.9166667,21.9333333 C28.3178,21.9333333 27.8333333,21.448 27.8333333,20.85 L27.8333333,12.4 L26.9666667,12.4 L26.9666667,21.9333333 L26.9666667,35.15 C26.9666667,35.9872 26.2872,36.6666667 25.45,36.6666667 C24.6119333,36.6666667 23.9333333,35.9872 23.9333333,35.15 L23.9333333,21.9333333 L23.0666667,21.9333333 L23.0666667,35.15 C23.0666667,35.9872 22.3872,36.6666667 21.55,36.6666667 C20.7119333,36.6666667 20.0333333,35.9872 20.0333333,35.15 L20.0333333,21.9333333 L20.0333333,12.4 L19.1666667,12.4 L19.1666667,20.85 C19.1666667,21.448 18.6813333,21.9333333 18.0833333,21.9333333 C17.4844667,21.9333333 17,21.448 17,20.85 L17,12.4 L17,11.0982667 C17,9.42386667 18.3572,8.06666667 20.0316,8.06666667 L20.0333333,8.06666667 L26.9666667,8.06666667 L26.9684,8.06666667 Z M23.4999133,7.2 C22.0638467,7.2 20.8999133,6.03606667 20.8999133,4.6 C20.8999133,3.16393333 22.0638467,2 23.4999133,2 C24.93598,2 26.0999133,3.16393333 26.0999133,4.6 C26.0999133,6.03606667 24.93598,7.2 23.4999133,7.2 Z" id="Male" fill-opacity="0.75"></path>
            <path d="M9.9684,8.06666667 C11.6428,8.06666667 13,9.42386667 13,11.0982667 L13,12.4 L13,20.85 C13,21.448 12.5146667,21.9333333 11.9166667,21.9333333 C11.3178,21.9333333 10.8333333,21.448 10.8333333,20.85 L10.8333333,12.4 L9.96666667,12.4 L9.96666667,21.9333333 L9.96666667,35.15 C9.96666667,35.9872 9.2872,36.6666667 8.45,36.6666667 C7.61193333,36.6666667 6.93333333,35.9872 6.93333333,35.15 L6.93333333,21.9333333 L6.06666667,21.9333333 L6.06666667,35.15 C6.06666667,35.9872 5.3872,36.6666667 4.55,36.6666667 C3.71193333,36.6666667 3.03333333,35.9872 3.03333333,35.15 L3.03333333,21.9333333 L3.03333333,12.4 L2.16666667,12.4 L2.16666667,20.85 C2.16666667,21.448 1.68133333,21.9333333 1.08333333,21.9333333 C0.484466667,21.9333333 -2.1893598e-12,21.448 -2.1893598e-12,20.85 L-2.1893598e-12,12.4 L-2.1893598e-12,11.0982667 C-2.1893598e-12,9.42386667 1.3572,8.06666667 3.0316,8.06666667 L3.03333333,8.06666667 L9.96666667,8.06666667 L9.9684,8.06666667 Z M6.49991333,7.2 C5.06384667,7.2 3.89991333,6.03606667 3.89991333,4.6 C3.89991333,3.16393333 5.06384667,2 6.49991333,2 C7.93598,2 9.09991333,3.16393333 9.09991333,4.6 C9.09991333,6.03606667 7.93598,7.2 6.49991333,7.2 Z" id="Male" fill-opacity="0.75"></path>
            <path d="M21.7850162,10.9998 L24.3080162,20.4178 C24.4870162,21.0848 24.0910162,21.7698 23.4240162,21.9488 C22.7570162,22.1278 22.0720162,21.7318 21.8930162,21.0648 L19.3720162,11.6548 L18.4020162,11.9178 L22.1760162,25.9998 L19.1760162,25.9998 L19.1760162,38.2498 C19.1760162,39.2168 18.3920162,39.9998 17.4260162,39.9998 C16.4590162,39.9998 15.6760162,39.2168 15.6760162,38.2498 L15.6760162,25.9998 L14.6760162,25.9998 L14.6760162,38.2498 C14.6760162,39.2168 13.8920162,39.9998 12.9260162,39.9998 C11.9590162,39.9998 11.1760162,39.2168 11.1760162,38.2498 L11.1760162,25.9998 L8.17601622,25.9998 L11.9490162,11.9178 L10.9800162,11.6548 L8.45801622,21.0648 C8.27901622,21.7318 7.59401622,22.1278 6.92701622,21.9488 C6.26001622,21.7698 5.86401622,21.0848 6.04301622,20.4178 L8.56701622,10.9998 C9.19201622,8.6658 10.7930162,7.1018 13.2660162,6.9998 L17.0890162,7.0158 C19.5590162,7.1018 21.1590162,8.6658 21.7850162,10.9998 Z M15.1755162,6 C13.5185162,6 12.1755162,4.657 12.1755162,3 C12.1755162,1.343 13.5185162,0 15.1755162,0 C16.8325162,0 18.1755162,1.343 18.1755162,3 C18.1755162,4.657 16.8325162,6 15.1755162,6 Z" id="Female"></path>
        </g>
    </g>
</svg>
